Optical/Ålandsbanken.svg

<?xml version="1.0" encoding="UTF-8"?>
<svg width="212px" height="48px" viewBox="0 0 212 48" version="1.1" xmlns="http://www.w3.org/2000/svg" xmlns:xlink="http://www.w3.org/1999/xlink">
    <!-- Generator: Sketch 52.3 (67297) - http://www.bohemiancoding.com/sketch -->
    <title>Optical/Ålandsbanken</title>
    <desc>Created with Sketch.</desc>
    <g id="Optical/Ålandsbanken" stroke="none" stroke-width="1" fill="none" fill-rule="evenodd">
        <path d="M21.1293333,23.4988962 C19.61,20.8852097 21.0586667,23.3576159 19.5393333,20.7792494 L26.182,20.7792494 L26.182,29.8211921 L32.6833333,29.8211921 C31.058,32.7880795 32.648,29.8918322 30.9873333,32.8940397 C28.7613333,32.9293598 24.6626667,32.9293598 21.1293333,32.9293598 L21.1293333,23.4988962 Z M53.8833333,23.6048565 C52.2933333,20.8852097 53.8126667,23.5342163 52.258,20.8145695 L61.6566667,20.8145695 C65.1546667,26.3951435 61.7626667,20.99117 65.1546667,26.4657837 L65.1546667,20.8145695 L69.2886667,20.8145695 L69.2886667,32.9646799 L62.752,32.9646799 C58.1233333,25.6534216 62.6813333,32.7880795 58.0526667,25.5827815 L58.0526667,32.9646799 C56.2506667,32.9293598 55.4733333,32.9293598 53.8833333,32.9293598 L53.8833333,23.6048565 Z M168.363333,27.9492274 L168.363333,32.9293598 C166.632,32.9646799 165.077333,32.9293598 163.416667,32.9293598 L163.416667,23.4988962 C161.897333,20.9205298 163.346,23.392936 161.791333,20.8145695 L168.328,20.8145695 L168.328,27.419426 C170.306667,25.2649007 172.356,23.004415 174.334667,20.8145695 L177.832667,20.8145695 C173.345333,25.794702 177.585333,21.0618102 173.168667,26.0066225 C177.196667,32.7527594 173.31,26.2538631 177.338,32.9293598 L171.437333,32.9293598 C168.434,28.0551876 171.366667,32.7880795 168.363333,27.9492274 Z M178.751333,20.8145695 L192.672667,20.8145695 C194.262667,23.392936 192.743333,20.9558499 194.333333,23.4988962 L185.429333,23.4988962 L185.429333,25.4768212 L189.174667,25.4768212 L189.174667,28.0905077 L185.429333,28.0905077 L185.429333,30.3509934 L194.404,30.3509934 C193.096667,32.8587196 194.298,30.5275938 193.061333,32.9646799 L180.341333,32.9646799 L180.341333,23.4282561 C179.034,21.2384106 180.270667,23.2869757 178.751333,20.8145695 Z M99.4986667,29.8211921 C100.205333,29.6445916 100.205333,28.5496689 99.534,28.4437086 C91.7253333,28.5143488 89.8526667,28.4437086 89.7466667,24.7704194 C89.7113333,22.4746137 91.5133333,20.9205298 92.9266667,20.7792494 L102.360667,20.7792494 C102.678667,21.3443709 103.88,23.2516556 103.986,23.4635762 L96.036,23.4635762 C95.506,23.6754967 95.3646667,24.5231788 96.036,24.7350993 L102.678667,24.7350993 C106.494667,25.3708609 106.494667,32.3995585 102.537333,32.8940397 L91.69,32.8940397 C89.888,30.0331126 91.584,32.7880795 89.7466667,29.8211921 L99.4986667,29.8211921 Z M71.444,20.7792494 C79.5706667,20.7792494 80.8073333,20.7086093 82.6093333,20.8498896 C86.4606667,21.4856512 88.0506667,24.205298 88.0153333,27.3487859 C88.0153333,29.8565121 85.8246667,32.5408389 82.574,32.7880795 C80.772,32.9293598 78.864,32.8940397 73.0693333,32.8940397 L73.0693333,23.4635762 C71.5146667,20.9205298 73.034,23.392936 71.444,20.7792494 Z M78.1573333,23.4635762 L78.1573333,30.2803532 C81.3373333,30.5275938 82.468,29.7505519 82.574,27.2428256 C82.6093333,24.0286976 81.1606667,23.2869757 78.1573333,23.4635762 Z M135.609333,20.7792494 C142.923333,32.611479 135.998,21.415011 143.1,32.9293598 L134.514,32.9293598 C135.786,30.5629139 134.655333,32.6467991 135.927333,30.3156733 L128.684,30.3156733 C127.624,32.3995585 128.507333,30.6688742 127.376667,32.9293598 L123.454667,32.9293598 C125.115333,29.785872 126.811333,26.607064 128.472,23.4635762 C126.846667,20.9205298 128.436667,23.392936 126.740667,20.7792494 L135.609333,20.7792494 Z M130.309333,27.384106 L133.772,27.384106 C131.934667,24.5584989 133.524667,26.995585 131.828667,24.4525386 C130.415333,27.2075055 131.758,24.5584989 130.309333,27.384106 Z M19.8573333,32.9293598 L19.8573333,32.8940397 L11.13,32.8940397 C12.4726667,30.3863135 11.2713333,32.6821192 12.5433333,30.2803532 L5.33533333,30.2803532 C4.09866667,32.5761589 5.194,30.5275938 3.922,32.8940397 C0,32.8940397 3.88666667,32.9293598 0,32.8940397 C5.088,23.4282561 0,32.8587196 5.12333333,23.4282561 L3.46266667,20.7792494 L12.3313333,20.7792494 C14.84,24.8057395 17.3486667,28.8675497 19.8573333,32.9293598 Z M6.92533333,27.3487859 L10.4233333,27.3487859 C10.4586667,27.3134658 10.3526667,27.1721854 8.62133333,24.3112583 C7.03133333,27.1368653 8.48,24.5231788 6.92533333,27.3487859 Z M52.3286667,32.9293598 L52.3286667,33 L43.672,33 C44.8733333,30.6688742 43.8133333,32.6821192 45.05,30.3509934 L37.8066667,30.3509934 C36.5346667,32.8233996 37.736,30.4569536 36.464,32.9646799 L32.542,32.9646799 C32.542,32.9293598 32.7893333,32.4348786 37.5946667,23.4635762 C36.04,20.9205298 37.4533333,23.2163355 35.934,20.7792494 L44.8026667,20.7792494 C52.1873333,32.6821192 45.05,21.1324503 52.3286667,32.9293598 Z M41.0573333,24.3465784 C39.4673333,27.2781457 41.022,24.4172185 39.432,27.3487859 L42.93,27.3487859 C41.1633333,24.4878587 42.8593333,27.2075055 41.0573333,24.3465784 Z M120.345333,26.5364238 L120.345333,26.6423841 C123.348667,27.0662252 123.808,32.5055188 119.992,32.9293598 L107.943333,32.9293598 L107.943333,23.4635762 C106.388667,20.8852097 107.872667,23.3222958 106.318,20.7792494 L119.320667,20.7792494 C120.946,20.9558499 122.041333,21.7328918 122.147333,23.4635762 C122.182667,24.6644592 121.652667,25.9006623 120.345333,26.5364238 Z M116.918,24.3112583 C116.882667,23.2163355 115.716667,23.5342163 113.031333,23.4635762 L113.031333,25.3355408 C115.398667,25.2649007 116.847333,25.6181015 116.918,24.3112583 Z M112.996,27.9845475 L112.996,30.3156733 C116.140667,30.2450331 117.377333,30.5629139 117.448,29.2207506 C117.342,27.807947 116.176,27.9845475 112.996,27.9845475 Z M4.06333333,17 L9.964,17 C11.66,19.6843267 10.0346667,17.1059603 11.6953333,19.7196468 L5.724,19.7196468 C4.134,17.1059603 5.724,19.7196468 4.06333333,17 Z M144.796,23.6048565 C143.241333,20.8852097 144.725333,23.5342163 143.170667,20.8145695 L152.534,20.8145695 C156.032,26.3951435 152.64,20.99117 156.067333,26.4657837 L156.067333,20.8145695 L160.201333,20.8145695 L160.201333,32.9646799 L153.664667,32.9646799 C149.000667,25.6534216 153.594,32.7880795 148.965333,25.5827815 L148.965333,32.9646799 C147.198667,32.9293598 146.386,32.9293598 144.796,32.9293598 L144.796,23.6048565 Z M196.594667,23.6048565 C195.004667,20.8852097 196.524,23.5342163 194.969333,20.8145695 L204.368,20.8145695 C207.830667,26.3951435 204.438667,20.99117 207.866,26.4657837 L207.866,20.8145695 L212,20.8145695 L212,32.9646799 L205.463333,32.9646799 C200.834667,25.6534216 205.392667,32.7880795 200.764,25.5827815 L200.764,32.9646799 C198.962,32.9293598 198.184667,32.9293598 196.594667,32.9293598 L196.594667,23.6048565 Z" id="Cropped/Ålandsbanken" fill="#00633A"></path>
    </g>
</svg>

<svg width="212" height="48" xmlns="http://www.w3.org/2000/svg"><path d="M21.13 23.499c-1.52-2.614-.071-.141-1.59-2.72h6.642v9.042h6.501c-1.625 2.967-.035.07-1.696 3.073-2.226.035-6.324.035-9.858.035V23.5zm32.753.106c-1.59-2.72-.07-.07-1.625-2.79h9.399c3.498 5.58.106.176 3.498 5.65v-5.65h4.134v12.15h-6.537c-4.629-7.312-.07-.177-4.7-7.382v7.382c-1.801-.036-2.579-.036-4.169-.036v-9.324zm114.48 4.344v4.98c-1.731.036-3.286 0-4.946 0V23.5c-1.52-2.578-.071-.106-1.626-2.684h6.537v6.604c1.979-2.154 4.028-4.415 6.007-6.604h3.498c-4.488 4.98-.248.247-4.664 5.192 4.028 6.746.141.247 4.169 6.922h-5.9c-3.004-4.874-.071-.14-3.075-4.98zm10.388-7.134h13.922c1.59 2.578.07.14 1.66 2.684h-8.904v1.978h3.746v2.614h-3.746v2.26h8.975c-1.307 2.508-.106.177-1.343 2.614h-12.72v-9.537c-1.307-2.19-.07-.141-1.59-2.613zM99.5 29.82c.706-.176.706-1.271.035-1.377-7.809.07-9.681 0-9.787-3.674-.036-2.295 1.766-3.85 3.18-3.99h9.434c.318.564 1.519 2.472 1.625 2.684h-7.95c-.53.211-.671 1.06 0 1.271h6.643c3.816.636 3.816 7.665-.142 8.159H91.69c-1.802-2.86-.106-.106-1.943-3.073h9.752zm-28.056-9.04c8.127 0 9.363-.07 11.165.07 3.852.637 5.442 3.356 5.406 6.5 0 2.508-2.19 5.192-5.441 5.44-1.802.14-3.71.105-9.505.105v-9.43c-1.554-2.543-.035-.071-1.625-2.685zm6.713 2.685v6.816c3.18.248 4.311-.53 4.417-3.037.035-3.214-1.413-3.956-4.417-3.78zm57.452-2.685c7.314 11.832.389.636 7.491 12.15h-8.586c1.272-2.366.141-.282 1.413-2.613h-7.243c-1.06 2.084-.177.353-1.307 2.613h-3.922c1.66-3.143 3.356-6.322 5.017-9.465-1.625-2.543-.035-.071-1.731-2.685h8.868zm-5.3 6.605h3.463c-1.837-2.826-.247-.388-1.943-2.931-1.414 2.755-.071.105-1.52 2.931zM19.857 32.93v-.035H11.13c1.343-2.508.141-.212 1.413-2.614H5.335c-1.236 2.296-.141.248-1.413 2.614-3.922 0-.035.035-3.922 0 5.088-9.466 0-.035 5.123-9.466l-1.66-2.649h8.868c2.509 4.027 5.018 8.089 7.526 12.15zM6.925 27.35h3.498c.036-.036-.07-.177-1.802-3.038-1.59 2.826-.141.212-1.696 3.038zm45.404 5.58V33h-8.657c1.201-2.331.141-.318 1.378-2.649h-7.243c-1.272 2.472-.071.106-1.343 2.614h-3.922c0-.036.247-.53 5.053-9.501-1.555-2.543-.142-.248-1.661-2.685h8.869c7.384 11.903.247.353 7.526 12.15zm-11.272-8.582c-1.59 2.931-.035.07-1.625 3.002h3.498c-1.767-2.861-.07-.141-1.873-3.002zm79.288 2.19v.105c3.004.424 3.463 5.864-.353 6.287h-12.049v-9.465c-1.554-2.579-.07-.142-1.625-2.685h13.003c1.625.177 2.72.954 2.826 2.685.036 1.2-.494 2.437-1.802 3.072zm-3.427-2.226c-.035-1.095-1.201-.777-3.887-.847v1.872c2.368-.071 3.816.282 3.887-1.025zm-3.922 3.674v2.33c3.145-.07 4.381.248 4.452-1.094-.106-1.413-1.272-1.236-4.452-1.236zM4.063 17h5.901c1.696 2.684.07.106 1.731 2.72H5.724c-1.59-2.614 0 0-1.66-2.72zm140.733 6.605c-1.555-2.72-.07-.07-1.625-2.79h9.363c3.498 5.58.106.176 3.533 5.65v-5.65h4.134v12.15h-6.536c-4.664-7.312-.071-.177-4.7-7.382v7.382c-1.766-.036-2.579-.036-4.169-.036v-9.324zm51.799 0c-1.59-2.72-.071-.07-1.626-2.79h9.399c3.463 5.58.07.176 3.498 5.65v-5.65H212v12.15h-6.537c-4.628-7.312-.07-.177-4.699-7.382v7.382c-1.802-.036-2.58-.036-4.17-.036v-9.324z" fill="#00633A" fill-rule="evenodd"/></svg>
